X:184
T:Humours of Glendart, The
T:East of Glendart
T:East at Glandart
R:jig
S:Mary Bergin
D:Planxty: After the Break
Z:id:hn-jig-184
M:6/8
K:D
BAF AFD|~F3 DFA|BAF AFD|FED EFA|BAF AFD|FEF DFA|dcB AFE|FDD D2A:|
|:def d2B|AFA AFA|def d2f|ede fdB|def d2B|AFA ABc|dcB AFE|FDD D2A:|
P:Variations:
|:BAF ADD|FEF DFA|BAF ADD|FEE EFA|BAF ADD|FEF DFA|dcB AFE|FDD D3:|
|:def d2B|ABA AFA|def d2f|ede fdB|def edB|AFA ABc|dcB AFE|FDD D3:|

